logos/msw-icon.svg

<?xml version="1.0" encoding="UTF-8"?>
<svg width="256px" height="256px" viewBox="0 0 256 256" version="1.1" xmlns="http://www.w3.org/2000/svg" preserveAspectRatio="xMidYMid">
    <title>MSW</title>
    <g>
        <path d="M35.0875385,28.5429828 C23.5260561,37.9306443 16.0173686,51.550974 14.4195232,66.7013099 L0,203.951885 L0.0750919256,206.314342 L0.112710806,207.108739 C0.656504907,215.747512 4.33419139,223.778956 10.3277662,229.788989 C16.8467554,236.325867 25.7188298,240.086322 35.1179073,240.078652 L169.749563,239.968474 L171.158057,239.947884 C184.876028,239.497159 197.610482,234.347693 207.515216,225.390364 C218.787721,215.196094 225.356686,201.09437 226.134767,186.182664 C226.912848,171.270958 221.847472,156.556834 211.697662,145.23495 L112.607955,34.7026101 L111.651095,33.6643036 C102.146551,23.7190217 89.8203487,17.6496007 76.5663663,16.2394828 C61.4821063,14.6346381 46.649021,19.1553212 35.0875385,28.5429828 Z M71.2237826,66.8964111 C72.5818251,67.040896 73.8451236,67.662944 74.7898449,68.6510016 L174.006716,179.32069 C175.063337,180.499327 175.567177,181.962904 175.486104,183.516653 C175.40503,185.070402 174.751632,186.473065 173.578136,187.534314 C172.563267,188.452109 171.258127,188.979872 169.894954,189.024988 L52.5542426,189.123233 L64.8565945,72.0570777 C65.0218586,70.4901077 65.7687285,69.1353284 66.9733957,68.157166 C68.1780631,67.1790034 69.6534722,66.7293426 71.2237826,66.8964111 Z" fill="#70211D"></path>
        <path d="M220.736345,1.13686838e-13 L35.206378,0.151825441 L33.696539,0.189609504 L32.8468398,0.233282992 C24.9956811,0.769584162 17.543344,3.93436751 11.6867735,9.23074662 C4.67280082,15.5738204 0.575047543,24.3705523 0.0909342894,33.6484225 C-0.39317918,42.9262968 2.76663016,52.1050492 9.0820395,59.1497463 L175.068503,244.303912 L176.105841,245.406419 L176.706225,246.011904 C182.352023,251.517778 189.67745,254.968546 197.514398,255.802335 C206.900117,256.800901 216.153078,253.980874 223.346486,248.139989 C230.539892,242.299107 235.223852,233.802672 236.218063,224.375837 L256,36.2742227 L255.924571,33.9011673 L255.886952,33.1067698 C255.340901,24.4321455 251.647994,16.3674618 245.629466,10.3324065 C239.083328,3.76830615 230.174561,-0.00770252912 220.736345,1.13686838e-13 Z M203.453481,50.9475621 L189.436246,184.20749 L70.0773707,51.0558103 L203.453481,50.9475621 Z" fill="#ED7344"></path>
    </g>
</svg>

<svg preserveAspectRatio="xMidYMid" viewBox="0 0 256 256" xmlns="http://www.w3.org/2000/svg">
  <path fill="#70211D" d="M35.088 28.543c-11.562 9.388-19.07 23.008-20.668 38.158L0 203.951l.075 2.363.038.795a35.232 35.232 0 0 0 10.215 22.68 34.933 34.933 0 0 0 24.79 10.29l134.632-.11 1.408-.021c13.718-.45 26.452-5.6 36.357-14.558 11.273-10.194 17.842-24.296 18.62-39.207.778-14.912-4.288-29.626-14.437-40.948l-99.09-110.532-.957-1.039c-9.504-9.945-21.83-16.014-35.085-17.425-15.084-1.604-29.917 2.916-41.478 12.304Zm36.136 38.353a5.781 5.781 0 0 1 3.566 1.755l99.217 110.67a5.734 5.734 0 0 1 1.48 4.196 5.728 5.728 0 0 1-1.909 4.017 5.777 5.777 0 0 1-3.683 1.491l-117.34.098L64.856 72.057a5.719 5.719 0 0 1 2.116-3.9 5.676 5.676 0 0 1 4.25-1.26Z"/>
  <path fill="#ED7344" d="M220.736 0 35.206.152l-1.51.038-.85.043a35.115 35.115 0 0 0-21.16 8.998A35.37 35.37 0 0 0 .092 33.648a35.403 35.403 0 0 0 8.99 25.502l165.987 185.154 1.037 1.102.6.606a35.127 35.127 0 0 0 20.808 9.79 35.048 35.048 0 0 0 25.832-7.662 35.351 35.351 0 0 0 12.872-23.764L256 36.274l-.075-2.373-.038-.794a35.378 35.378 0 0 0-10.258-22.775A35.077 35.077 0 0 0 220.736 0Zm-17.283 50.948-14.017 133.26L70.077 51.055l133.376-.108Z"/>
</svg>
